X:151
T:Mary Jane(?). JaW.151
M:2/4
L:1/16
Q:1/4=90
S:James Winder Ms, Lancashire, 1835-41
R:.Set Dance
O:England
A:Wyresdale,Lancashire
N:Title illegible.
Z:vmp.Chris Partington, Aug 2004
K:G
D2|G2GB AcBd|dcBc A2c2|BGcA dBec|B4{cB}A2D2|!
G2GB AcBd|dcBc A2c2|Bdec B2A2|A4G2||!
Bd|c2c2 A3c|cBAB G3B|ABcd edcB|G4 F2Bd|!
cdcd A3c|cBAG G2g2|fage dfe^c|dedc “DC”BcAB|]

